assets/amenitiesIcons/CookiePlater.svg

<?xml version="1.0" encoding="utf-8"?><!-- Uploaded to: SVG Repo, www.svgrepo.com, Generator: SVG Repo Mixer Tools -->
<svg width="800px" height="800px" viewBox="0 0 24 24" fill="none" xmlns="http://www.w3.org/2000/svg">
<path d="M9 5C10.0739 5 11.0913 5.24182 12.0007 5.67398C9.63518 6.79691 8 9.2075 8 12C8 14.7925 9.63518 17.2031 12.0003 18.3265C11.0913 18.7582 10.0739 19 9 19C5.13401 19 2 15.866 2 12C2 8.13401 5.13401 5 9 5ZM14 10C14.5523 10 15 9.55228 15 9C15 8.44772 14.5523 8 14 8C13.4477 8 13 8.44772 13 9C13 9.55228 13.4477 10 14 10ZM12 15C12.5523 15 13 14.5523 13 14C13 13.4477 12.5523 13 12 13C11.4477 13 11 13.4477 11 14C11 14.5523 11.4477 15 12 15ZM17 15C17.5523 15 18 14.5523 18 14C18 13.4477 17.5523 13 17 13C16.4477 13 16 13.4477 16 14C16 14.5523 16.4477 15 17 15ZM15 19C16.933 19 18.683 18.2165 19.9497 16.9497C20.3796 16.5199 20.886 15.7631 21.4689 14.6794L20 13V10L18 9V7L16 5C15.645 5 15.3117 5 15 5C11.134 5 8 8.13401 8 12C8 15.866 11.134 19 15 19Z" stroke="#000000" stroke-linejoin="round"/>
</svg>

<svg xmlns="http://www.w3.org/2000/svg" width="800" height="800" fill="none" viewBox="0 0 24 24"><path stroke="#000" stroke-linejoin="round" d="M9 5c1.074 0 2.091.242 3 .674a7 7 0 0 0 0 12.653A7 7 0 1 1 9 5Zm5 5a1 1 0 1 0 0-2 1 1 0 0 0 0 2Zm-2 5a1 1 0 1 0 0-2 1 1 0 0 0 0 2Zm5 0a1 1 0 1 0 0-2 1 1 0 0 0 0 2Zm-2 4a6.978 6.978 0 0 0 4.95-2.05c.43-.43.936-1.187 1.519-2.27L20 13v-3l-2-1V7l-2-2h-1a7 7 0 1 0 0 14Z"/></svg>
